X: 26941
T: Miss Bruce
R: jig
M: 6/8
K: Dmajor
AG|:FAd dcd|Adf f^ef|afd afd|cee efg|
afd dc=c|Bdg b2g|f/g/af gec|edc d:|
fg|:afd dcB|ABA Aef|gab afd|cee efg|
afd dcd|Bdg b2g|f/g/af gec|edc d:|

